src/lib/packages/icons/src/assets/filled/arrow-share.svg

<svg width="24" height="24" viewBox="0 0 24 24" fill="none" xmlns="http://www.w3.org/2000/svg">
<path d="M13 4.99092C13 4.09592 14.094 3.66096 14.709 4.31196L20.637 10.582C21.121 11.094 21.121 11.894 20.637 12.406L14.709 18.676C14.094 19.326 13 18.891 13 17.997V14.4919C5.437 14.4919 4.93602 16.962 4.96802 19.529C4.97402 20.019 4.32501 20.1811 4.08301 19.7561C3.46701 18.6751 3 17.1999 3 15.4909C3 8.99592 10 8.49702 13 8.49702V4.99092Z" fill="currentColor"/>
</svg>

<svg xmlns="http://www.w3.org/2000/svg" width="24" height="24" fill="none"><path fill="currentColor" d="M13 4.99c0-.894 1.094-1.329 1.709-.678l5.928 6.27a1.327 1.327 0 0 1 0 1.824l-5.928 6.27c-.615.65-1.709.215-1.709-.679v-3.505c-7.563 0-8.064 2.47-8.032 5.037.006.49-.643.652-.885.227C3.467 18.676 3 17.2 3 15.491c0-6.495 7-6.994 10-6.994V4.991Z"/></svg>
